src/images/hangable-teapot.svg

<?xml version="1.0" encoding="UTF-8"?>
<svg width="100px" height="100px" viewBox="0 0 100 100" version="1.1" xmlns="http://www.w3.org/2000/svg" xmlns:xlink="http://www.w3.org/1999/xlink">
    <!-- Generator: Sketch 52.5 (67469) - http://www.bohemiancoding.com/sketch -->
    <title>Artboard</title>
    <desc>Created with Sketch.</desc>
    <g id="Artboard" stroke="none" stroke-width="1" fill="none" fill-rule="evenodd">
        <g id="teapot" transform="translate(46.000000, 72.000000) rotate(270.000000) translate(-46.000000, -72.000000) translate(26.000000, 57.000000)">
            <path d="M2.43515625,11.0111658 C2.43515625,11.0111658 2.43429687,11.0103886 2.4340625,11.0103109 C2.1725,10.8251036 1.88773438,10.8076943 1.6746875,11.0489378 C1.59921875,11.1345078 0.828984375,12.0073057 0.082265625,12.8532124 C0.014375,12.9434456 -0.098046875,13.1729534 0.170703125,13.4985233 L0.170703125,13.4986788 L9.0928125,24.1120725 C7.6071875,21.2236788 7.3971875,17.9443523 8.29164063,15.0341192 L2.43515625,11.0111658 Z" id="Path" fill="#A61C78"></path>
            <path d="M7.76484375,18.3157772 L1.2625,12.2861658 L1.26242187,12.2860104 C1.0290625,12.0656736 1.02101562,11.8734715 1.05523437,11.750829 C1.05523437,11.750829 0.12609375,12.8034715 0.0821875,12.8532902 C0.014296875,12.9435233 -0.098125,13.1730311 0.170625,13.498601 L0.170625,13.4987565 L9.09273438,24.1121503 C8.1775,22.332513 7.71890625,20.3619948 7.76484375,18.3157772 Z" id="Path" fill="#8C1865"></path>
            <path d="M30.2957031,12.6622539 C30.7124219,13.4016839 31.0534375,14.1889896 31.3086719,15.0138342 C34.3527344,13.9984197 37.4354688,16.1803368 37.4354688,19.2840933 C37.4354688,21.7715285 35.4083594,23.7879793 32.9082031,23.7879793 C32.2339063,23.7879793 31.4336719,23.6401554 30.85875,23.3773057 C30.5175,24.1672539 30.0963281,24.9148446 29.6019531,25.6077202 C30.5499219,26.075285 31.7782813,26.3393782 32.908125,26.3393782 C36.8247656,26.3393782 40,23.1806736 40,19.284171 C40.0000781,14.3344819 35.0091406,10.9340674 30.2957031,12.6622539 Z" id="Path" fill="#A61C78"></path>
            <path d="M15.5822656,29.9841451 L24.0242969,29.9841451 C32.1733594,26.9958808 34.4845313,16.8962176 29.0755469,10.6146373 L10.5311719,10.6146373 C5.11632813,16.9028238 7.4403125,26.9984456 15.5822656,29.9841451 Z" id="Path" fill="#ED42B4"></path>
            <path d="M17.4770313,10.614715 L10.5310938,10.614715 C5.11625,16.9029016 7.44023438,26.9985233 15.5821875,29.9842228 L24.0242188,29.9842228 C24.0323438,29.9812694 24.0403125,29.9780052 24.0484375,29.9750518 C16.9061719,26.3240674 14.0635156,17.7099482 17.4770313,10.614715 Z" id="Path" fill="#C93E9B"></path>
            <path d="M10.3379687,8.29165803 L29.26875,8.29165803 C24.1182813,2.31007772 15.4959375,2.3011399 10.3379687,8.29165803 Z" id="Path" fill="#ED42B4"></path>
            <path d="M21.5289062,3.92432642 C17.2205469,3.28095855 13.0797656,5.10722798 10.3379687,8.29165803 L16.2139844,8.29165803 C17.5404688,6.04810881 19.4107031,4.38497409 21.5289062,3.92432642 Z" id="Path" fill="#C93E9B"></path>
            <ellipse id="Oval" fill="#A61C78" cx="19.8032031" cy="1.90647668" rx="1.89890625" ry="1.88906736"></ellipse>
            <path d="M20.7528125,0.271165803 C19.4938281,-0.45373057 17.9044531,0.450466321 17.9044531,1.90678756 C17.9044531,3.36443005 19.4946094,4.2669171 20.7528125,3.54248705 C19.4878125,2.8142487 19.488125,0.999170984 20.7528125,0.271165803 Z" id="Path" fill="#8C1865"></path>
            <path d="M29.5344531,10.6947668 L10.0722656,10.6947668 C9.45265625,10.6947668 8.83554688,10.2414249 8.83554688,9.36178756 C8.83554688,8.68235751 9.38921875,8.1315544 10.0722656,8.1315544 L29.5344531,8.1315544 C30.2173437,8.1315544 30.7711719,8.68235751 30.7711719,9.36178756 C30.7711719,10.2447668 30.1480469,10.6947668 29.5344531,10.6947668 Z" id="Path" fill="#A61C78"></path>
            <path d="M29.5344531,9.41316062 L10.0722656,9.41316062 C9.60398437,9.41316062 9.19664063,9.15411917 8.98671875,8.77227979 C8.56710938,9.53525907 9.02492188,10.6947668 10.0722656,10.6947668 L29.5344531,10.6947668 C30.1380469,10.6947668 30.7711719,10.2564249 30.7711719,9.36178756 C30.7711719,9.14813472 30.71625,8.94738342 30.62,8.77235751 C30.41,9.15404145 30.0025781,9.41316062 29.5344531,9.41316062 Z" id="Path" fill="#8C1865"></path>
        </g>
        <path d="M46.3133927,46.8100082 L46.2953944,43.6700119 C46.2931754,43.0474826 46.7948291,42.5404166 47.4172892,42.5360133 L53.541715,42.5000133 C54.1616569,42.4970133 54.6716091,43.0020127 54.6756087,43.622012 L54.694607,46.8640081 L54.7725996,46.8640081 C55.654517,46.8710081 56.3864483,47.6060073 56.4024468,48.4980062 L56.4994378,53.8869998 C56.5107829,54.3112302 56.3500292,54.722005 56.0537641,55.025832 C55.7574989,55.3296591 55.3509275,55.5006899 54.9265852,55.4999979 L46.2274008,55.441998 C45.3474833,55.436998 44.6125522,54.7019989 44.5975536,53.8089999 L44.5005627,48.4200063 C44.4892122,47.9958674 44.6499961,47.5851918 44.9462917,47.2815219 C45.2425873,46.9778521 45.6491648,46.8070456 46.0734152,46.8080082 L46.3133927,46.8100082 Z" id="Path" fill="#000000"></path>
    </g>
</svg>

<svg width="100" height="100" xmlns="http://www.w3.org/2000/svg"><g fill="none" fill-rule="evenodd"><g transform="rotate(-90 61.5 30.5)"><path d="M2.435 11.011c-.263-.186-.547-.203-.76.038L.082 12.853c-.068.09-.18.32.089.646l8.922 10.613a12.11 12.11 0 0 1-.801-9.078l-5.857-4.023z" fill="#A61C78"/><path d="M7.765 18.316l-6.502-6.03c-.234-.22-.242-.413-.208-.535l-.973 1.102c-.068.09-.18.32.089.646l8.922 10.613a12.016 12.016 0 0 1-1.328-5.796z" fill="#8C1865"/><path d="M30.296 12.662c.416.74.757 1.527 1.013 2.352 3.044-1.016 6.126 1.166 6.126 4.27 0 2.488-2.027 4.504-4.527 4.504-.674 0-1.474-.148-2.05-.41a12.1 12.1 0 0 1-1.256 2.23c.948.467 2.176.731 3.306.731 3.917 0 7.092-3.158 7.092-7.055 0-4.95-4.99-8.35-9.704-6.622z" fill="#A61C78"/><path d="M15.582 29.984h8.442c8.15-2.988 10.46-13.088 5.052-19.37H10.53c-5.415 6.289-3.09 16.384 5.051 19.37z" fill="#ED42B4"/><path d="M17.477 10.615h-6.946c-5.415 6.288-3.09 16.384 5.051 19.37h8.442l.024-.01c-7.142-3.65-9.984-12.265-6.571-19.36z" fill="#C93E9B"/><path d="M10.338 8.292h18.93c-5.15-5.982-13.772-5.99-18.93 0z" fill="#ED42B4"/><path d="M21.529 3.924c-4.308-.643-8.45 1.183-11.191 4.368h5.876c1.326-2.244 3.197-3.907 5.315-4.368z" fill="#C93E9B"/><ellipse fill="#A61C78" cx="19.803" cy="1.906" rx="1.899" ry="1.889"/><path d="M20.753.271c-1.26-.725-2.849.18-2.849 1.636 0 1.457 1.59 2.36 2.849 1.635a1.884 1.884 0 0 1 0-3.27z" fill="#8C1865"/><path d="M29.534 10.695H10.072c-.62 0-1.236-.454-1.236-1.333 0-.68.553-1.23 1.236-1.23h19.462c.683 0 1.237.55 1.237 1.23 0 .883-.623 1.333-1.237 1.333z" fill="#A61C78"/><path d="M29.534 9.413H10.072c-.468 0-.875-.259-1.085-.64-.42.762.038 1.922 1.085 1.922h19.462c.604 0 1.237-.439 1.237-1.333a1.22 1.22 0 0 0-.151-.59c-.21.382-.617.641-1.086.641z" fill="#8C1865"/></g><path d="M46.313 46.81l-.018-3.14a1.13 1.13 0 0 1 1.122-1.134l6.125-.036c.62-.003 1.13.502 1.134 1.122l.019 3.242h.078c.882.007 1.613.742 1.63 1.634l.096 5.389a1.571 1.571 0 0 1-1.572 1.613l-8.7-.058c-.88-.005-1.614-.74-1.63-1.633l-.096-5.389a1.57 1.57 0 0 1 1.572-1.612l.24.002z" fill="#000"/></g></svg>
